dist/assets/img/contacts/telegram.svg

<svg width="16" height="16" viewBox="0 0 16 16" fill="none" xmlns="http://www.w3.org/2000/svg">
<g clip-path="url(#clip0)">
<path d="M6.22173 10.1812L5.96755 13.7564C6.33122 13.7564 6.48872 13.6002 6.67759 13.4126L8.38258 11.7831L11.9155 14.3704C12.5634 14.7315 13.0199 14.5413 13.1947 13.7743L15.5137 2.90798L15.5143 2.90734C15.7198 1.94952 15.1679 1.57498 14.5367 1.80995L0.905735 7.02863C-0.0245481 7.38973 -0.0104626 7.90833 0.747594 8.1433L4.23248 9.22724L12.3272 4.16223C12.7081 3.90997 13.0545 4.04954 12.7696 4.3018L6.22173 10.1812Z" fill="#FF3D00"/>
</g>
<defs>
<clipPath id="clip0">
<rect width="15.366" height="15.366" fill="white" transform="translate(0.192383 0.461548)"/>
</clipPath>
</defs>
</svg>

<svg width="16" height="16" viewBox="0 0 16 16" fill="none" xmlns="http://www.w3.org/2000/svg"><g clip-path="url(#clip0)"><path d="M6.222 10.181l-.254 3.575c.363 0 .52-.156.71-.343l1.705-1.63 3.533 2.587c.647.362 1.104.171 1.279-.596l2.319-10.866c.206-.958-.346-1.333-.977-1.098L.906 7.029c-.93.36-.916.88-.158 1.114l3.484 1.084 8.095-5.065c.381-.252.728-.112.443.14l-6.548 5.88z" fill="#FF3D00"/></g><defs><clipPath id="clip0"><path fill="#fff" transform="translate(.192 .462)" d="M0 0h15.366v15.366H0z"/></clipPath></defs></svg>
